X: 6465
T: Cat In The Corner, The
R: jig
M: 6/8
K: Dmixolydian
|:F~F2 DFA|dAF AFD|E~E2 cEG|cGE cEG|
F~F2 DFA|dAF AFD|G~G2 EFG|1 AFD D2E:|2 AFD D2e||
ffd d^cd|afd def|eec cBc|gec ceg|
ffd d^cd|afd def|g~g2 efg|afd d2e||
ffd d^cd|afd def|eec cBc|gec ceg|
agf gz e|fed cAF|G~G2 EFG|AFD D3||

